X:1
T:Title
%%score { 1 | ( 2 3 ) }
L:1/8
M:4/4
K:Eb
V:1 treble nm="Grand Piano"
V:2 bass 
V:3 bass 
V:1
 z4 z2[Q:1/4=100] [EG]>[FA] | [GB][GB][GB][GB] [GB]2 [EG]>[FA] | %2
 [GB][GB][GB][GB] [GB]2 [DAc]>[EGB] | [FA][EG][DF][EG] [FA]2 [GB]>[FA] | G2 c2 [GB]2 [GB]>[GB] | %5
 [Ge][Ge][Ge][Ge] d2 d>d | cccc B2 B>B | [CEA][CEA][CEA][CEA] [B,EG]2 [G,E]>[G,E] | %8
[M:3/4] [A,DF]4 E2 |[M:1/4] B>B |[M:4/4] [Ge]4 [Ge]2 [Bd]>[Ac] | [GB]4 [EG]2 [EG]>[FA] | %12
 [GB][GB][GB][GB] [GB]2 [DAc]>[EGB] | [FA][EG][DF][EG] [FA]2 [AB]>[AB] | [Ge]4 [Ge]2 [Bd]>[Ac] | %15
 [GB]4 [EG]2 [GB]>[GB] | [Ge][Ge][Bd][Ac] [GB]2 [B,EG]>[G,E] |[M:7/8] [A,DF]- [A,DF]3 [G,E]3 |] %18
V:2
 z4 z2 [E,B,]>[E,B,] | [E,E][E,E][E,E][E,E] [E,E]2 [E,B,]>[E,B,] | %2
 [E,E][E,E][E,E][E,E] [E,E]2 B,,>B,, | [B,,B,][B,,B,][B,,B,][B,,B,] [B,,B,]2 [B,,B,]>[B,,B,] | %4
 [B,E]2 z2 z4 | [E,B,][E,B,][E,B,][E,B,][K:treble] [G,=B,G]2 [G,B,G]>[G,B,G] | %6
 [A,CE][A,E][K:bass][A,E][A,E] [E,G,E]2 [E,G,E]>[E,G,E] | A,,A,,A,,A,, B,,2 B,,>B,, | %8
[M:3/4] B,,4 [E,G,]2 |[M:1/4] [E,G,E]>[E,G,E] |[M:4/4] [E,B,]4 [E,B,]2 [E,E]>[E,E] | %11
 [E,E]4 [E,B,]2 [E,B,]>[E,B,] | [E,E][E,E][E,E][E,E] [E,E]2 B,,>B,, | %13
 [B,,B,][B,,B,][B,,B,][B,,B,] [B,,B,]2 [D,B,]>[D,B,] | [E,B,]4 [E,B,]2 [E,E]>[E,E] | %15
 [E,E]4 [E,B,]2 [E,E]>[E,E] | [E,B,][E,B,][E,E][E,E] [E,E]2 E,>E, |[M:7/8] B,,- B,,3 E,3 |] %18
V:3
 x8 | x8 | x8 | x8 | E,2- [E,EA]2 [E,E]2 [E,E]>[E,E] | x4[K:treble] x4 | x2[K:bass] x6 | x8 | %8
[M:3/4] x6 |[M:1/4] x2 |[M:4/4] x8 | x8 | x8 | x8 | x8 | x8 | x8 |[M:7/8] x7 |] %18

